svgs/thin/calendars.svg

<svg xmlns="http://www.w3.org/2000/svg" viewBox="0 0 512 512"><!--! Font Awesome Pro 6.4.0 by @fontawesome - https://fontawesome.com License - https://fontawesome.com/license (Commercial License) Copyright 2023 Fonticons, Inc. --><path d="M216 0c4.4 0 8 3.6 8 8V64H384V8c0-4.4 3.6-8 8-8s8 3.6 8 8V64h48c35.3 0 64 28.7 64 64v48 16V352c0 35.3-28.7 64-64 64H160c-35.3 0-64-28.7-64-64V192 176 128c0-35.3 28.7-64 64-64h48V8c0-4.4 3.6-8 8-8zm-8 120V80H160c-26.5 0-48 21.5-48 48v48H496V128c0-26.5-21.5-48-48-48H400v40c0 4.4-3.6 8-8 8s-8-3.6-8-8V80H224v40c0 4.4-3.6 8-8 8s-8-3.6-8-8zm288 72H112V352c0 26.5 21.5 48 48 48H448c26.5 0 48-21.5 48-48V192zM0 224c0-29.8 20.4-54.9 48-62v16.7c-18.6 6.6-32 24.4-32 45.3V448c0 26.5 21.5 48 48 48H352c20.9 0 38.7-13.4 45.3-32H414c-7.1 27.6-32.2 48-62 48H64c-35.3 0-64-28.7-64-64V224z"/></svg>

<svg xmlns="http://www.w3.org/2000/svg" viewBox="0 0 512 512"><!--! Font Awesome Pro 6.3.0 by @fontawesome - https://fontawesome.com License - https://fontawesome.com/license (Commercial License) Copyright 2023 Fonticons, Inc. --><path d="M216 0C220.4 0 224 3.582 224 8V64H384V8C384 3.582 387.6 0 392 0C396.4 0 400 3.582 400 8V64H448C483.3 64 512 92.65 512 128V352C512 387.3 483.3 416 448 416H160C124.7 416 96 387.3 96 352V128C96 92.65 124.7 64 160 64H208V8C208 3.582 211.6 0 216 0zM208 120V80H160C133.5 80 112 101.5 112 128V176H496V128C496 101.5 474.5 80 448 80H400V120C400 124.4 396.4 128 392 128C387.6 128 384 124.4 384 120V80H224V120C224 124.4 220.4 128 216 128C211.6 128 208 124.4 208 120zM112 192V352C112 378.5 133.5 400 160 400H448C474.5 400 496 378.5 496 352V192H112zM0 223.1C0 194.2 20.4 169.1 48 162V178.7C29.36 185.3 16 203.1 16 223.1V448C16 474.5 37.49 496 64 496H352C372.9 496 390.7 482.6 397.3 464H413.1C406.9 491.6 381.8 512 352 512H64C28.65 512 0 483.3 0 448V223.1z"/></svg>
